X: 1
T: Durang's Hornpipe
C: trad.
R: hornpipe, reel
Z: 2020 John Chambers <jc:trillian.mit.edu>
S: https://www.facebook.com/groups/Fiddletuneoftheday/
S: https://www.facebook.com/groups/Fiddletuneoftheday/photos/
M: 4/4
L: 1/8
K: D
|:\
"D"D2FE DEFG | ABdA BAFE | D2FE DEFD | "A"E2EF E2FE |
"D"D2FE DEFG | ABdA BAFE | "A"AFAd fdec | d2[fd][fd] [f4d4] :|
|:\
"D"fgag fedA | Bcdc BAFD | "G"GGBG "D"FGAF | "A"EDEF E2de |
"D"fefa fedA | Bcdc BAFE | "A"DFAd fdec | d2[fd][fd] [f4d4] :|
